public/images/poses-lg/LordoftheFishes.svg

<svg width="800" height="800" fill="none" xmlns="http://www.w3.org/2000/svg"><g clip-path="url(#a)"><path d="M363.758 499.763c-10.818 3.632-29.289 7.828-41.165 41.942-11.872 34.109-31.161 72.725-45.145 95.094-13.986 22.369-24.017 81.661-41.17 98.156-17.15 16.494-54.036 13.214-51.463 24.539 2.573 11.322 36.394 2.727 48.889 2.727 10.293 0 13.927-11.019 20.585-19.086 18.012-21.812 44.467-84.189 48.251-97.56 3.938-13.904 47.176-81.189 56.442-91.131 9.264-9.943 21.532-35.946 21.532-35.946l-16.756-18.735Z" fill="#fff" stroke="#000" stroke-width="5" stroke-miterlimit="10"/><path d="M363.758 499.763c-10.818 3.632-29.289 7.828-41.165 41.942-11.872 34.109-31.161 72.725-45.145 95.094-13.986 22.369-24.017 81.661-41.17 98.156-17.15 16.494-54.036 13.214-51.463 24.539 2.573 11.322 36.394 2.727 48.889 2.727 10.293 0 13.927-11.019 20.585-19.086 18.012-21.812 44.467-84.189 48.251-97.56 3.938-13.904 47.176-81.189 56.442-91.131 9.264-9.943 21.532-35.946 21.532-35.946l-16.756-18.735Z" stroke="#000" stroke-width="5" stroke-miterlimit="10"/><path d="M467.008 554.457c-9.493-29.363-4.784-54.694-4.784-54.694s-10.936-3.081-23.621-13.553c-12.661-10.496-9.496-45.859-9.496-45.859s-.644.135-16.083.135c-15.439 0-16.261-.135-16.261-.135s3.319 35.362-9.342 45.859c-12.659 10.472-23.62 13.553-23.62 13.553s4.734 25.33-4.787 54.694c0 0 8.877 62.194-2.985 115.035 0 0 24.934 10.469 56.995 10.469 32.061 0 56.993-10.469 56.993-10.469-11.884-52.841-3.009-115.035-3.009-115.035Z" fill="#fff" stroke="#000" stroke-width="5" stroke-miterlimit="10"/><path d="M467.008 554.457c-9.493-29.363-4.784-54.694-4.784-54.694s-10.936-3.081-23.621-13.553c-12.661-10.496-9.496-45.859-9.496-45.859s-.644.135-16.083.135c-15.439 0-16.261-.135-16.261-.135s3.319 35.362-9.342 45.859c-12.659 10.472-23.62 13.553-23.62 13.553s4.734 25.33-4.787 54.694c0 0 8.877 62.194-2.985 115.035 0 0 24.934 10.469 56.995 10.469 32.061 0 56.993-10.469 56.993-10.469-11.884-52.841-3.009-115.035-3.009-115.035Z" stroke="#000" stroke-width="5" stroke-miterlimit="10"/><path d="M376.419 494.167s13.746 21.924 36.793 21.924c23.048 0 36.795-21.924 36.795-21.924" stroke="#000" stroke-width="5" stroke-miterlimit="10"/><path d="M434.632 430.056c5.328-8.6 1.857-17.675 4.178-28.717 3.68-17.539-15.59-36.422-34.535-36.601-25.02-.237-32.113 94.032-17.779 96.672 8.492 1.566 24.551-4.981 36.822-19.224 3.944-4.582 11.314-12.13 11.314-12.13Z" fill="#fff" stroke="#000" stroke-width="5" stroke-miterlimit="10"/><path d="M434.632 430.056c5.328-8.6 1.857-17.675 4.178-28.717 3.68-17.539-15.59-36.422-34.535-36.601-25.02-.237-32.113 94.032-17.779 96.672 8.492 1.566 24.551-4.981 36.822-19.224 3.944-4.582 11.314-12.13 11.314-12.13Z" stroke="#000" stroke-width="5" stroke-miterlimit="10"/><path d="M393.158 375.016c-.7 16.578 8.94 47.329 28.884 43.257 22.422-4.577 12.57 8.771 10.567 13.05-1.999 4.282-13.229 11.852-11.108 13.255 2.123 1.403 33.275-8.43 37.737-32.093 4.462-23.668-.256-36.478-11.489-44.639-11.232-8.163-35.415-11.108-47.538-4.287-12.124 6.821-7.053 11.457-7.053 11.457Z" fill="#100200" stroke="#000" stroke-width="5" stroke-miterlimit="10"/><path d="M447.935 379.239c-2.626-11.117-1.189-38.673 26.329-28.472 22.607 8.382 21.711-2.698 41.69-4.676 16.057-1.592 26.516 20.22 6.782 48.269-17.959 25.527-29.152 9.836-44.093-3.787-14.944-13.621-30.708-11.334-30.708-11.334Z" fill="#100200" stroke="#000" stroke-width="5" stroke-miterlimit="10"/><path d="m425.478 763.594 129.868-25.912s20.585-10.907 25.732-16.359c5.146-5.452-10.293-13.633-10.293-13.633l-97.778 13.633" fill="#fff"/><path d="m425.478 763.594 129.868-25.912s20.585-10.907 25.732-16.359c5.146-5.452-10.293-13.633-10.293-13.633l-97.778 13.633" stroke="#000" stroke-width="5" stroke-miterlimit="10"/><path d="m425.478 763.594 129.868-25.912s20.585-10.907 25.732-16.359c5.146-5.452-10.293-13.633-10.293-13.633l-97.778 13.633" stroke="#000" stroke-width="5" stroke-miterlimit="10"/><path d="M577.216 722.684s-9.16-2.779-15.334-11.289a26.853 26.853 0 0 1-1.751-2.67c-1.644-2.945-2.933-6.436-3.5-10.579-.437-3.272-.875-8.345-1.362-14.506-2.239-29.665-5.121-85.066-11.504-91.829-7.719-8.18-23.159-38.171-61.755 5.452-38.597 43.625-72.046 73.618-72.046 73.618l-54.037-2.726s-25.731 89.976 38.598 100.881c11.039 1.881 21.769-.601 31.985-5.973h.024c26.222-13.795 49.018-46.758 64.562-74.569 13.688-24.43 20.504-40.789 20.504-40.789-.842 2.462 2.453 21.759 11.041 37.544 5.932 10.907 8.668 24.131 14.871 33.128.362.546.722 1.063 1.106 1.582 0 0 .08.079.234.245.977 1.171 4.912 6.244 4.912 13.387 0 8.18 41.17 8.18 48.889 5.453 7.72-2.727 5.148-10.905-15.437-16.36Z" fill="#fff" stroke="#000" stroke-width="5" stroke-miterlimit="10"/><path d="M577.216 722.684s-9.16-2.779-15.334-11.289a26.853 26.853 0 0 1-1.751-2.67c-1.644-2.945-2.933-6.436-3.5-10.579-.437-3.272-.875-8.345-1.362-14.506-2.239-29.665-5.121-85.066-11.504-91.829-7.719-8.18-23.159-38.171-61.755 5.452-38.597 43.625-72.046 73.618-72.046 73.618l-54.037-2.726s-25.731 89.976 38.598 100.881c11.039 1.881 21.769-.601 31.985-5.973h.024c26.222-13.795 49.018-46.758 64.562-74.569 13.688-24.43 20.504-40.789 20.504-40.789-.842 2.462 2.453 21.759 11.041 37.544 5.932 10.907 8.668 24.131 14.871 33.128.362.546.722 1.063 1.106 1.582 0 0 .08.079.234.245.977 1.171 4.912 6.244 4.912 13.387 0 8.18 41.17 8.18 48.889 5.453 7.72-2.727 5.148-10.905-15.437-16.36Z" stroke="#000" stroke-width="5" stroke-miterlimit="10"/><path d="M426.535 763.065c26.221-13.795 49.017-46.758 64.561-74.569a789.554 789.554 0 0 1 31.546-3.247c10.677-.844 21.923-1.499 32.627-1.607 24.189-.299 45.623 2.045 51.539 10.415 15.439 21.812 10.293 46.351-46.316 65.437s-97.778 21.812-97.778 21.812-2.573 0-7.72 8.18c-5.146 8.18-25.73 10.907-20.584-5.452 5.145-16.359 2.572-24.54 18.011-27.266 15.438-2.726 36.023-21.812 46.316-16.36 5.405 2.862 16.547-6.926 30.365-16.494 0 0 23.671-16.224 36.537-13.498" fill="#fff"/><path d="M426.535 763.065c26.221-13.795 49.017-46.758 64.561-74.569a789.554 789.554 0 0 1 31.546-3.247c10.677-.844 21.923-1.499 32.627-1.607 24.189-.299 45.623 2.045 51.539 10.415 15.439 21.812 10.293 46.351-46.316 65.437s-97.778 21.812-97.778 21.812-2.573 0-7.72 8.18c-5.146 8.18-25.73 10.907-20.584-5.452 5.145-16.359 2.572-24.54 18.011-27.266 15.438-2.726 36.023-21.812 46.316-16.36 5.405 2.862 16.547-6.926 30.365-16.494 0 0 23.671-16.224 36.537-13.498" stroke="#000" stroke-width="5" stroke-miterlimit="10"/><path d="M426.535 763.065c26.221-13.795 49.017-46.758 64.561-74.569a789.554 789.554 0 0 1 31.546-3.247c10.677-.844 21.923-1.499 32.627-1.607 24.189-.299 45.623 2.045 51.539 10.415 15.439 21.812 10.293 46.351-46.316 65.437s-97.778 21.812-97.778 21.812-2.573 0-7.72 8.18c-5.146 8.18-25.73 10.907-20.584-5.452 5.145-16.359 2.572-24.54 18.011-27.266 15.438-2.726 36.023-21.812 46.316-16.36 5.405 2.862 16.547-6.926 30.365-16.494 0 0 23.671-16.224 36.537-13.498" stroke="#000" stroke-width="5" stroke-miterlimit="10"/><path d="M581.076 456.847c-1.623 13.795-2.573 27.266-2.573 27.266s-7.72 117.241-18.012 144.507c-4.398 11.694-11.192 15.87-17.494 16.822-7.955 1.201-15.826-2.809-20.585-9.705-14.514-21.108-47.194-72.502-55.403-81.277-9.494-29.367-4.784-54.696-4.784-54.696 10.832 3.626 29.282 7.823 41.17 41.931 11.86 34.114 19.942 42.757 33.938 65.113 0 0 20.585-117.242 18.012-125.422-1.651-5.251-3.754-18.366-3.206-27.084.462-7.381 2.047-14.655 5.001-21.354 12.643-28.742 26.509 2.086 23.936 23.899Z" fill="#fff" stroke="#000" stroke-width="5" stroke-miterlimit="10"/><path d="M581.076 456.847c-1.623 13.795-2.573 27.266-2.573 27.266s-7.72 117.241-18.012 144.507c-4.398 11.694-11.192 15.87-17.494 16.822-7.955 1.201-15.826-2.809-20.585-9.705-14.514-21.108-47.194-72.502-55.403-81.277-9.494-29.367-4.784-54.696-4.784-54.696 10.832 3.626 29.282 7.823 41.17 41.931 11.86 34.114 19.942 42.757 33.938 65.113 0 0 20.585-117.242 18.012-125.422-1.651-5.251-3.754-18.366-3.206-27.084.462-7.381 2.047-14.655 5.001-21.354 12.643-28.742 26.509 2.086 23.936 23.899ZM408.678 672.244l-18.013 19.086" stroke="#000" stroke-width="5" stroke-miterlimit="10"/><path d="m408.678 672.244-18.013 19.086" stroke="#000" stroke-width="5" stroke-miterlimit="10" stroke-linecap="square"/><path d="M512.571 735.642s-6.31 21.168 5.367 36.143Z" fill="#fff"/><path d="M512.571 735.642s-6.31 21.168 5.367 36.143" stroke="#000" stroke-width="5" stroke-miterlimit="10"/><path d="M512.571 735.642s-6.31 21.168 5.367 36.143" stroke="#000" stroke-width="5" stroke-miterlimit="10"/></g><defs><clipPath id="a"><path fill="#fff" d="M0 0h800v800H0z"/></clipPath></defs></svg>

<svg width="800" height="800" viewBox="0 0 800 800" fill="none" xmlns="http://www.w3.org/2000/svg">
<g clip-path="url(#clip0_298_12121)">
<path d="M363.758 499.763C352.94 503.395 334.469 507.591 322.593 541.705C310.721 575.814 291.432 614.43 277.448 636.799C263.462 659.168 253.431 718.46 236.278 734.955C219.128 751.449 182.242 748.169 184.815 759.494C187.388 770.816 221.209 762.221 233.704 762.221C243.997 762.221 247.631 751.202 254.289 743.135C272.301 721.323 298.756 658.946 302.54 645.575C306.478 631.671 349.716 564.386 358.982 554.444C368.246 544.501 380.514 518.498 380.514 518.498L363.758 499.763Z" fill="white" stroke="black" stroke-width="5" stroke-miterlimit="10"/>
<path d="M363.758 499.763C352.94 503.395 334.469 507.591 322.593 541.705C310.721 575.814 291.432 614.43 277.448 636.799C263.462 659.168 253.431 718.46 236.278 734.955C219.128 751.449 182.242 748.169 184.815 759.494C187.388 770.816 221.209 762.221 233.704 762.221C243.997 762.221 247.631 751.202 254.289 743.135C272.301 721.323 298.756 658.946 302.54 645.575C306.478 631.671 349.716 564.386 358.982 554.444C368.246 544.501 380.514 518.498 380.514 518.498L363.758 499.763Z" stroke="black" stroke-width="5" stroke-miterlimit="10"/>
<path d="M467.008 554.457C457.515 525.094 462.224 499.763 462.224 499.763C462.224 499.763 451.288 496.682 438.603 486.21C425.942 475.714 429.107 440.351 429.107 440.351C429.107 440.351 428.463 440.486 413.024 440.486C397.585 440.486 396.763 440.351 396.763 440.351C396.763 440.351 400.082 475.713 387.421 486.21C374.762 496.682 363.801 499.763 363.801 499.763C363.801 499.763 368.535 525.093 359.014 554.457C359.014 554.457 367.891 616.651 356.029 669.492C356.029 669.492 380.963 679.961 413.024 679.961C445.085 679.961 470.017 669.492 470.017 669.492C458.133 616.651 467.008 554.457 467.008 554.457Z" fill="white" stroke="black" stroke-width="5" stroke-miterlimit="10"/>
<path d="M467.008 554.457C457.515 525.094 462.224 499.763 462.224 499.763C462.224 499.763 451.288 496.682 438.603 486.21C425.942 475.714 429.107 440.351 429.107 440.351C429.107 440.351 428.463 440.486 413.024 440.486C397.585 440.486 396.763 440.351 396.763 440.351C396.763 440.351 400.082 475.713 387.421 486.21C374.762 496.682 363.801 499.763 363.801 499.763C363.801 499.763 368.535 525.093 359.014 554.457C359.014 554.457 367.891 616.651 356.029 669.492C356.029 669.492 380.963 679.961 413.024 679.961C445.085 679.961 470.017 669.492 470.017 669.492C458.133 616.651 467.008 554.457 467.008 554.457Z" stroke="black" stroke-width="5" stroke-miterlimit="10"/>
<path d="M376.419 494.167C376.419 494.167 390.165 516.091 413.212 516.091C436.26 516.091 450.007 494.167 450.007 494.167" stroke="black" stroke-width="5" stroke-miterlimit="10"/>
<path d="M434.632 430.056C439.96 421.456 436.489 412.381 438.81 401.339C442.49 383.8 423.22 364.917 404.275 364.738C379.255 364.501 372.162 458.77 386.496 461.41C394.988 462.976 411.047 456.429 423.318 442.186C427.262 437.604 434.632 430.056 434.632 430.056Z" fill="white" stroke="black" stroke-width="5" stroke-miterlimit="10"/>
<path d="M434.632 430.056C439.96 421.456 436.489 412.381 438.81 401.339C442.49 383.8 423.22 364.917 404.275 364.738C379.255 364.501 372.162 458.77 386.496 461.41C394.988 462.976 411.047 456.429 423.318 442.186C427.262 437.604 434.632 430.056 434.632 430.056Z" stroke="black" stroke-width="5" stroke-miterlimit="10"/>
<path d="M393.158 375.016C392.458 391.594 402.098 422.345 422.042 418.273C444.464 413.696 434.612 427.044 432.609 431.323C430.61 435.605 419.38 443.175 421.501 444.578C423.624 445.981 454.776 436.148 459.238 412.485C463.7 388.817 458.982 376.007 447.749 367.846C436.517 359.683 412.334 356.738 400.211 363.559C388.087 370.38 393.158 375.016 393.158 375.016Z" fill="#100200" stroke="black" stroke-width="5" stroke-miterlimit="10"/>
<path d="M447.935 379.239C445.309 368.122 446.746 340.566 474.264 350.767C496.871 359.149 495.975 348.069 515.954 346.091C532.011 344.499 542.47 366.311 522.736 394.36C504.777 419.887 493.584 404.196 478.643 390.573C463.699 376.952 447.935 379.239 447.935 379.239Z" fill="#100200" stroke="black" stroke-width="5" stroke-miterlimit="10"/>
<path d="M425.478 763.594L555.346 737.682C555.346 737.682 575.931 726.775 581.078 721.323C586.224 715.871 570.785 707.69 570.785 707.69L473.007 721.323" fill="white"/>
<path d="M425.478 763.594L555.346 737.682C555.346 737.682 575.931 726.775 581.078 721.323C586.224 715.871 570.785 707.69 570.785 707.69L473.007 721.323" stroke="black" stroke-width="5" stroke-miterlimit="10"/>
<path d="M425.478 763.594L555.346 737.682C555.346 737.682 575.931 726.775 581.078 721.323C586.224 715.871 570.785 707.69 570.785 707.69L473.007 721.323" stroke="black" stroke-width="5" stroke-miterlimit="10"/>
<path d="M577.216 722.684C577.216 722.684 568.056 719.905 561.882 711.395C561.264 710.551 560.671 709.681 560.131 708.725C558.487 705.78 557.198 702.289 556.631 698.146C556.194 694.874 555.756 689.801 555.269 683.64C553.03 653.975 550.148 598.574 543.765 591.811C536.046 583.631 520.606 553.64 482.01 597.263C443.413 640.888 409.964 670.881 409.964 670.881L355.927 668.155C355.927 668.155 330.196 758.131 394.525 769.036C405.564 770.917 416.294 768.435 426.51 763.063H426.534C452.756 749.268 475.552 716.305 491.096 688.494C504.784 664.064 511.6 647.705 511.6 647.705C510.758 650.167 514.053 669.464 522.641 685.249C528.573 696.156 531.309 709.38 537.512 718.377C537.874 718.923 538.234 719.44 538.618 719.959C538.618 719.959 538.698 720.038 538.852 720.204C539.829 721.375 543.764 726.448 543.764 733.591C543.764 741.771 584.934 741.771 592.653 739.044C600.373 736.317 597.801 728.139 577.216 722.684Z" fill="white" stroke="black" stroke-width="5" stroke-miterlimit="10"/>
<path d="M577.216 722.684C577.216 722.684 568.056 719.905 561.882 711.395C561.264 710.551 560.671 709.681 560.131 708.725C558.487 705.78 557.198 702.289 556.631 698.146C556.194 694.874 555.756 689.801 555.269 683.64C553.03 653.975 550.148 598.574 543.765 591.811C536.046 583.631 520.606 553.64 482.01 597.263C443.413 640.888 409.964 670.881 409.964 670.881L355.927 668.155C355.927 668.155 330.196 758.131 394.525 769.036C405.564 770.917 416.294 768.435 426.51 763.063H426.534C452.756 749.268 475.552 716.305 491.096 688.494C504.784 664.064 511.6 647.705 511.6 647.705C510.758 650.167 514.053 669.464 522.641 685.249C528.573 696.156 531.309 709.38 537.512 718.377C537.874 718.923 538.234 719.44 538.618 719.959C538.618 719.959 538.698 720.038 538.852 720.204C539.829 721.375 543.764 726.448 543.764 733.591C543.764 741.771 584.934 741.771 592.653 739.044C600.373 736.317 597.801 728.139 577.216 722.684Z" stroke="black" stroke-width="5" stroke-miterlimit="10"/>
<path d="M426.535 763.065C452.756 749.27 475.552 716.307 491.096 688.496C499.972 687.404 510.958 686.205 522.642 685.249C533.319 684.405 544.565 683.75 555.269 683.642C579.458 683.343 600.892 685.687 606.808 694.057C622.247 715.869 617.101 740.408 560.492 759.494C503.883 778.58 462.714 781.306 462.714 781.306C462.714 781.306 460.141 781.306 454.994 789.486C449.848 797.666 429.264 800.393 434.41 784.034C439.555 767.675 436.982 759.494 452.421 756.768C467.859 754.042 488.444 734.956 498.737 740.408C504.142 743.27 515.284 733.482 529.102 723.914C529.102 723.914 552.773 707.69 565.639 710.416" fill="white"/>
<path d="M426.535 763.065C452.756 749.27 475.552 716.307 491.096 688.496C499.972 687.404 510.958 686.205 522.642 685.249C533.319 684.405 544.565 683.75 555.269 683.642C579.458 683.343 600.892 685.687 606.808 694.057C622.247 715.869 617.101 740.408 560.492 759.494C503.883 778.58 462.714 781.306 462.714 781.306C462.714 781.306 460.141 781.306 454.994 789.486C449.848 797.666 429.264 800.393 434.41 784.034C439.555 767.675 436.982 759.494 452.421 756.768C467.859 754.042 488.444 734.956 498.737 740.408C504.142 743.27 515.284 733.482 529.102 723.914C529.102 723.914 552.773 707.69 565.639 710.416" stroke="black" stroke-width="5" stroke-miterlimit="10"/>
<path d="M426.535 763.065C452.756 749.27 475.552 716.307 491.096 688.496C499.972 687.404 510.958 686.205 522.642 685.249C533.319 684.405 544.565 683.75 555.269 683.642C579.458 683.343 600.892 685.687 606.808 694.057C622.247 715.869 617.101 740.408 560.492 759.494C503.883 778.58 462.714 781.306 462.714 781.306C462.714 781.306 460.141 781.306 454.994 789.486C449.848 797.666 429.264 800.393 434.41 784.034C439.555 767.675 436.982 759.494 452.421 756.768C467.859 754.042 488.444 734.956 498.737 740.408C504.142 743.27 515.284 733.482 529.102 723.914C529.102 723.914 552.773 707.69 565.639 710.416" stroke="black" stroke-width="5" stroke-miterlimit="10"/>
<path d="M581.076 456.847C579.453 470.642 578.503 484.113 578.503 484.113C578.503 484.113 570.783 601.354 560.491 628.62C556.093 640.314 549.299 644.49 542.997 645.442C535.042 646.643 527.171 642.633 522.412 635.737C507.898 614.629 475.218 563.235 467.009 554.46C457.515 525.093 462.225 499.764 462.225 499.764C473.057 503.39 491.507 507.587 503.395 541.695C515.255 575.809 523.337 584.452 537.333 606.808C537.333 606.808 557.918 489.566 555.345 481.386C553.694 476.135 551.591 463.02 552.139 454.302C552.601 446.921 554.186 439.647 557.14 432.948C569.783 404.206 583.649 435.034 581.076 456.847Z" fill="white" stroke="black" stroke-width="5" stroke-miterlimit="10"/>
<path d="M581.076 456.847C579.453 470.642 578.503 484.113 578.503 484.113C578.503 484.113 570.783 601.354 560.491 628.62C556.093 640.314 549.299 644.49 542.997 645.442C535.042 646.643 527.171 642.633 522.412 635.737C507.898 614.629 475.218 563.235 467.009 554.46C457.515 525.093 462.225 499.764 462.225 499.764C473.057 503.39 491.507 507.587 503.395 541.695C515.255 575.809 523.337 584.452 537.333 606.808C537.333 606.808 557.918 489.566 555.345 481.386C553.694 476.135 551.591 463.02 552.139 454.302C552.601 446.921 554.186 439.647 557.14 432.948C569.783 404.206 583.649 435.034 581.076 456.847Z" stroke="black" stroke-width="5" stroke-miterlimit="10"/>
<path d="M408.678 672.244L390.665 691.33" stroke="black" stroke-width="5" stroke-miterlimit="10"/>
<path d="M408.678 672.244L390.665 691.33" stroke="black" stroke-width="5" stroke-miterlimit="10" stroke-linecap="square"/>
<path d="M512.571 735.642C512.571 735.642 506.261 756.81 517.938 771.785Z" fill="white"/>
<path d="M512.571 735.642C512.571 735.642 506.261 756.81 517.938 771.785" stroke="black" stroke-width="5" stroke-miterlimit="10"/>
<path d="M512.571 735.642C512.571 735.642 506.261 756.81 517.938 771.785" stroke="black" stroke-width="5" stroke-miterlimit="10"/>
</g>
<defs>
<clipPath id="clip0_298_12121">
<rect width="800" height="800" fill="white"/>
</clipPath>
</defs>
</svg>
